public/images/hashed/0eff3e7fb9c854796b05a20a5a8aa522.svg

<?xml version="1.0" encoding="UTF-8"?>
<svg width="80px" height="80px" viewBox="0 0 80 80" version="1.1" xmlns="http://www.w3.org/2000/svg" xmlns:xlink="http://www.w3.org/1999/xlink">
    <!-- Generator: Sketch 64 (93537) - https://sketch.com -->
    <title>Icon-Architecture/64/Arch_AWS-SageMaker-Ground-Truth_64</title>
    <desc>Created with Sketch.</desc>
    <defs>
        <linearGradient x1="0%" y1="100%" x2="100%" y2="0%" id="linearGradient-1">
            <stop stop-color="#055F4E" offset="0%"></stop>
            <stop stop-color="#56C0A7" offset="100%"></stop>
        </linearGradient>
    </defs>
    <g id="Icon-Architecture/64/Arch_AWS-SageMaker-Ground-Truth_64" stroke="none" stroke-width="1" fill="none" fill-rule="evenodd">
        <g id="Icon-Architecture-BG/64/Machine-Learning" fill="url(#linearGradient-1)">
            <rect id="Rectangle" x="0" y="0" width="80" height="80"></rect>
        </g>
        <path d="M41.002,49.0001328 C41.002,49.5511219 40.554,50.0001188 40.002,50.0001188 C39.45,50.0001188 39.002,49.5511219 39.002,49.0001328 C39.002,48.4491296 39.45,48.0001328 40.002,48.0001328 C40.554,48.0001328 41.002,48.4491296 41.002,49.0001328 L41.002,49.0001328 Z M37.002,49.0001258 C37.002,50.6541142 38.348,52.0001048 40.002,52.0001048 C41.656,52.0001048 43.002,50.6541142 43.002,49.0001258 C43.002,47.3461373 41.656,46.0001467 40.002,46.0001467 C38.348,46.0001467 37.002,47.3461373 37.002,49.0001258 L37.002,49.0001258 Z M36.002,59.0000559 L44.002,59.0000559 L44.002,57.0000699 L36.002,57.0000699 L36.002,59.0000559 Z M35.002,61.0000419 L45.002,61.0000419 L45.002,55.0000839 L35.002,55.0000839 L35.002,61.0000419 Z M33.002,54.0000978 L33.002,62.0000349 C33.002,62.5520311 33.449,63.000028 34.002,63.000028 L46.002,63.000028 C46.555,63.000028 47.002,62.5520311 47.002,62.0000349 L47.002,54.0000978 C47.002,53.4480947 46.555,53.0000978 46.002,53.0000978 L34.002,53.0000978 C33.449,53.0000978 33.002,53.4480947 33.002,54.0000978 L33.002,54.0000978 Z M48.002,65.000014 L32.002,65.000014 L32.002,49.4891224 L40.002,43.2671658 L48.002,49.4891224 L48.002,65.000014 Z M40.616,41.2101802 C40.255,40.9301822 39.749,40.9301822 39.388,41.2101802 L30.388,48.2101313 C30.145,48.40013 30.002,48.6911279 30.002,49.0001258 L30.002,66.000007 C30.002,66.5520031 30.449,67 31.002,67 L49.002,67 C49.555,67 50.002,66.5520031 50.002,66.000007 L50.002,49.0001258 C50.002,48.6911279 49.859,48.40013 49.616,48.2101313 L40.616,41.2101802 Z M57.002,43.0001677 C56.45,43.0001677 56.002,42.5511708 56.002,42.0001817 C56.002,41.4491785 56.45,41.0001817 57.002,41.0001817 C57.554,41.0001817 58.002,41.4491785 58.002,42.0001817 C58.002,42.5511708 57.554,43.0001677 57.002,43.0001677 L57.002,43.0001677 Z M53.018,27.0492792 C52.458,27.0492792 52.002,26.5932824 52.002,26.0332863 C52.002,25.4732902 52.458,25.0172934 53.018,25.0172934 C53.578,25.0172934 54.034,25.4732902 54.034,26.0332863 C54.034,26.5932824 53.578,27.0492792 53.018,27.0492792 L53.018,27.0492792 Z M49.002,35.0002236 C49.554,35.0002236 50.002,35.4492205 50.002,36.0002236 C50.002,36.5512128 49.554,37.0002096 49.002,37.0002096 C48.45,37.0002096 48.002,36.5512128 48.002,36.0002236 C48.002,35.4492205 48.45,35.0002236 49.002,35.0002236 L49.002,35.0002236 Z M66.496,33.1322367 L60.002,29.4202626 L60.002,22.0003144 C60.002,21.6663168 59.835,21.354319 59.557,21.1683203 L47.557,13.1683762 C47.24,12.9583776 46.832,12.9443777 46.502,13.1343764 L40.004,16.8843502 L33.502,13.1343764 C33.19,12.9543777 32.808,12.9553776 32.498,13.1363764 L20.498,20.1363275 C20.19,20.3153262 20.002,20.6453239 20.002,21.0003214 L20.002,29.4202626 L13.506,33.1322367 C13.194,33.3102354 13.002,33.6412331 13.002,34.0002306 L13.002,34.4172277 C13.001,34.4382275 13,34.4582274 13,34.4792272 L13,45.3631512 C13,45.3831511 13.001,45.4031509 13.002,45.4221508 L13.002,47.0001398 C13.002,47.3791371 13.216,47.7251347 13.555,47.8951335 L19.002,50.6181145 L19.002,59.0000559 C19.002,59.3790533 19.216,59.7250508 19.555,59.8950496 L27.555,63.8950217 L28.449,62.1050342 L21.002,58.3820602 L21.002,50.0001188 C21.002,49.6211214 20.788,49.2751239 20.449,49.105125 L15.002,46.3821441 L15.001,40.6181843 L20.449,37.8952034 L19.555,36.1052159 L15.001,38.3812 L15.002,34.5812265 L20.963,31.1742503 L26.002,34.519227 L26.002,39.4471925 L21.489,42.1421737 L22.515,43.8581617 L27.014,41.1731805 L31.487,43.8571617 L32.517,42.1431737 L28.002,39.4341926 L28.002,34.5352269 L33.557,30.8322527 C33.835,30.646254 34.002,30.3342562 34.002,30.0002585 L34.002,24.0003005 L32.002,24.0003005 L32.002,29.4652623 L27.014,32.790239 L22.002,29.4632623 L22.002,21.5743174 L27.002,18.6583378 L27.002,27.0002795 L29.002,27.0002795 L29.002,17.491346 L33.005,15.1563623 L39.001,18.6153381 L39.002,31.0002516 C39.002,31.359249 39.194,31.6902467 39.506,31.8682455 L46.042,35.6032194 C46.024,35.7342185 46.002,35.8642176 46.002,36.0002166 C46.002,37.6542051 47.348,39.0001957 49.002,39.0001957 C50.656,39.0001957 52.002,37.6542051 52.002,36.0002166 C52.002,34.3462282 50.656,33.0002376 49.002,33.0002376 C48.208,33.0002376 47.49,33.3152354 46.953,33.8202319 L41.002,30.4192556 L41.001,18.6183381 L46.964,15.1763621 L58.002,22.5353107 L58.002,25.0002935 L55.852,25.0002935 C55.429,23.8443016 54.318,23.0173073 53.018,23.0173073 C51.355,23.0173073 50.002,24.3702979 50.002,26.0332863 C50.002,27.6962746 51.355,29.0492652 53.018,29.0492652 C54.343,29.0492652 55.472,28.1902712 55.875,27.0002795 L58.002,27.0002795 L58.002,30.0002585 C58.002,30.359256 58.194,30.6902537 58.506,30.8682525 L65,34.5802265 L65,45.2721518 L59.963,42.382172 C59.98,42.2561729 60.002,42.1311738 60.002,42.0001747 C60.002,40.3461862 58.656,39.0001957 57.002,39.0001957 C55.348,39.0001957 54.002,40.3461862 54.002,42.0001747 C54.002,43.6541631 55.348,45.0001537 57.002,45.0001537 C57.801,45.0001537 58.523,44.682156 59.062,44.1711595 L63.886,46.9391402 L59.555,49.105125 C59.216,49.2751239 59.002,49.6211214 59.002,50.0001188 L59.002,58.3820602 L51.555,62.1050342 L52.449,63.8950217 L60.449,59.8950496 C60.788,59.7250508 61.002,59.3790533 61.002,59.0000559 L61.002,50.6181145 L66.447,47.8951335 C66.786,47.7251347 67,47.3791371 67,47.0001398 L67,34.0002306 C67,33.6412331 66.808,33.3102354 66.496,33.1322367 L66.496,33.1322367 Z" id="AWS-SageMaker-Ground-Truth_Icon_64_Squid" fill="#FFFFFF"></path>
    </g>
</svg>

<svg xmlns="http://www.w3.org/2000/svg" width="80" height="80"><defs><linearGradient id="a" x1="0%" x2="100%" y1="100%" y2="0%"><stop offset="0%" stop-color="#055F4E"/><stop offset="100%" stop-color="#56C0A7"/></linearGradient></defs><g fill="none" fill-rule="evenodd"><path fill="url(#a)" d="M0 0h80v80H0z"/><path fill="#FFF" d="M41.002 49a1.001 1.001 0 0 1-2 0 1.001 1.001 0 0 1 2 0Zm-4 0c0 1.654 1.346 3 3 3s3-1.346 3-3-1.346-3-3-3-3 1.346-3 3Zm-1 10h8v-2h-8v2Zm-1 2h10v-6h-10v6Zm-2-7v8a1 1 0 0 0 1 1h12a1 1 0 0 0 1-1v-8a1 1 0 0 0-1-1h-12a1 1 0 0 0-1 1Zm15 11h-16V49.49l8-6.223 8 6.222V65Zm-7.386-23.79a1.003 1.003 0 0 0-1.228 0l-9 7c-.243.19-.386.481-.386.79v17a1 1 0 0 0 1 1h18a1 1 0 0 0 1-1V49c0-.309-.143-.6-.386-.79l-9-7ZM57.002 43a1.001 1.001 0 0 1 0-2 1.001 1.001 0 0 1 0 2Zm-3.984-15.95a1.017 1.017 0 0 1 0-2.032c.56 0 1.016.455 1.016 1.015 0 .56-.456 1.016-1.016 1.016ZM49.002 35a1.001 1.001 0 0 1 0 2 1.001 1.001 0 0 1 0-2Zm17.494-1.868-6.494-3.712V22c0-.334-.167-.646-.445-.832l-12-8a1.003 1.003 0 0 0-1.055-.034l-6.498 3.75-6.502-3.75a.998.998 0 0 0-1.004.002l-12 7a1 1 0 0 0-.496.864v8.42l-6.496 3.712a.999.999 0 0 0-.504.868v.417L13 34.48v10.884l.002.06V47c0 .38.214.725.553.895l5.447 2.723V59c0 .38.214.725.553.895l8 4 .894-1.79-7.447-3.723V50c0-.379-.214-.725-.553-.895l-5.447-2.723-.001-5.764 5.448-2.723-.894-1.79-4.554 2.276.001-3.8 5.961-3.407 5.039 3.345v4.928l-4.513 2.695 1.026 1.716 4.499-2.685 4.473 2.684 1.03-1.714-4.515-2.709v-4.899l5.555-3.703c.278-.186.445-.498.445-.832v-6h-2v5.465l-4.988 3.325-5.012-3.327v-7.889l5-2.916V27h2v-9.509l4.003-2.335 5.996 3.46L39.002 31c0 .36.192.69.504.868l6.536 3.735c-.018.131-.04.261-.04.397 0 1.654 1.346 3 3 3s3-1.346 3-3-1.346-3-3-3c-.794 0-1.512.315-2.049.82l-5.951-3.4-.001-11.802 5.963-3.442 11.038 7.36V25h-2.15a3.022 3.022 0 0 0-2.834-1.983 3.02 3.02 0 0 0-3.016 3.016 3.02 3.02 0 0 0 3.016 3.016A3.02 3.02 0 0 0 55.875 27h2.127v3c0 .36.192.69.504.868L65 34.58v10.692l-5.037-2.89c.017-.126.039-.25.039-.382 0-1.654-1.346-3-3-3s-3 1.346-3 3 1.346 3 3 3c.799 0 1.521-.318 2.06-.829l4.824 2.768-4.331 2.166c-.339.17-.553.516-.553.895v8.382l-7.447 3.723.894 1.79 8-4c.339-.17.553-.516.553-.895v-8.382l5.445-2.723c.339-.17.553-.516.553-.895V34a.999.999 0 0 0-.504-.868Z"/></g></svg>
